X:5963
T:Gan Ainm
R:Reel
S:(Sharon Shannon)
H:
N:
D:Galway Arts Festival Concert
Z:Adrian Scahill
M:4/4
L:1/8
K:D
DEFA dcde|fded Bdef|gfed fedB|AFDE FEE2|\
DEFA dcde|fded Bdef|gfed fedB|AFDE D4:||\
K:C\
D3E F3F|FEDC D3G|E3F G3G|GFGA GFDC|\
D3E F3F|FEDC D3G|E3F G3G|GFDC D3D:||


